assets/imgs/group-2.svg

<svg width="113" height="81" viewBox="0 0 113 81" fill="none" xmlns="http://www.w3.org/2000/svg">
<line x1="57.4619" y1="17.8833" x2="57.4619" y2="42.1353" stroke="#C891C3" stroke-width="2" stroke-dasharray="1.61 1.61"/>
<line x1="56.8797" y1="54.6693" x2="56.8797" y2="72.4494" stroke="#C891C3" stroke-width="0.806257" stroke-dasharray="1.61 1.61"/>
<line x1="24.6426" y1="71.4495" x2="57.0255" y2="71.4495" stroke="#C891C3" stroke-width="2" stroke-dasharray="1.61 1.61"/>
<line x1="70.5879" y1="51.5492" x2="87.2244" y2="51.5492" stroke="#C891C3" stroke-width="2" stroke-dasharray="1.61 1.61"/>
<g clip-path="url(#clip0_5003_7469)">
<path d="M8.08666 64.5404H6.64038C6.26097 64.5404 5.91847 64.7663 5.76837 65.1142L1.76465 74.4368L11.273 69.5805C10.1348 68.0055 9.00861 66.2684 8.08666 64.5404Z" fill="#BBBBBB"/>
<path d="M26.4815 65.1142C26.3317 64.7663 25.9889 64.5404 25.6098 64.5404H24.1635C22.4224 67.803 19.8859 71.1747 18.2723 73.0296C17.1375 74.3312 15.1106 74.3298 13.9775 73.0296C13.8616 72.8965 13.2566 72.196 12.4232 71.1188L10.709 71.9947L17.1934 78.4666L29.4801 72.0968L26.4815 65.1142Z" fill="#BBBBBB"/>
<path d="M0.5947 77.1614L0.0775025 78.3658C-0.1902 78.989 0.268437 79.6851 0.949258 79.6851H14.873C14.9601 79.6204 14.9611 79.6243 15.4286 79.382L8.93457 72.9015L0.5947 77.1614Z" fill="#BBBBBB"/>
<path d="M32.1729 78.3656L30.23 73.8417L18.959 79.6849H31.3011C31.9804 79.6849 32.4411 78.99 32.1729 78.3656Z" fill="#BBBBBB"/>
<path d="M17.0733 55.9584C17.0733 55.4363 16.6476 55.0118 16.1248 55.0118C15.6017 55.0118 15.1763 55.4363 15.1763 55.9584C15.1763 56.4803 15.6017 56.905 16.1248 56.905C16.6476 56.905 17.0733 56.4803 17.0733 55.9584Z" fill="#BBBBBB"/>
<path d="M16.8406 71.7242C17.16 71.3575 24.6613 62.6803 24.6613 56.7156C24.6613 44.4161 7.58838 44.266 7.58838 56.7156C7.58838 62.6803 15.0897 71.3575 15.4091 71.7242C15.7873 72.1579 16.4632 72.1575 16.8406 71.7242ZM13.2793 55.9585C13.2793 54.3926 14.5558 53.1188 16.1248 53.1188C17.6937 53.1188 18.9702 54.3926 18.9702 55.9585C18.9702 57.5241 17.6937 58.7979 16.1248 58.7979C14.5558 58.7979 13.2793 57.5241 13.2793 55.9585Z" fill="#C891C3"/>
</g>
<path d="M60.8399 17.0089C61.0505 16.7984 61.3031 16.63 61.5558 16.5036C61.0505 14.9456 59.5767 13.8929 57.9345 13.8929H55.029C53.3447 13.8929 51.913 14.9878 51.4077 16.5036C51.6604 16.6721 51.8709 16.8405 52.1236 17.0089C53.092 17.8511 53.7658 19.0301 53.9342 20.2934L54.3553 23.241H58.6503L59.0714 20.2934C59.2398 19.0301 59.8714 17.8511 60.8399 17.0089Z" fill="#C891C3"/>
<path d="M56.462 12.7563C58.3569 12.7563 59.8728 11.1983 59.8728 9.34552V9.05041C59.8728 7.15554 58.3148 5.63965 56.462 5.63965C54.5672 5.63965 53.0513 7.19765 53.0513 9.05041V9.34552C53.0513 11.1983 54.5672 12.7563 56.462 12.7563Z" fill="#C891C3"/>
<path d="M52.3354 20.5462C52.0407 18.6513 50.4405 17.2617 48.5457 17.2617H45.6402C43.7453 17.2617 42.1031 18.6513 41.8505 20.5462L41.1768 25.1781C41.0504 25.936 41.6399 26.6097 42.44 26.6097H51.788C52.546 26.6097 53.1355 25.936 53.0513 25.1781L52.3354 20.5462Z" fill="#BBBBBB"/>
<path d="M47.0714 16.1251C48.9663 16.1251 50.4822 14.5671 50.4822 12.7143V12.4192C50.4822 10.5243 48.9242 9.00842 47.0714 9.00842C45.1765 9.00842 43.6606 10.5664 43.6606 12.4192V12.7143C43.6606 14.5671 45.2186 16.1251 47.0714 16.1251Z" fill="#BBBBBB"/>
<path d="M71.7889 25.1781L71.1152 20.5462C70.8204 18.6513 69.2203 17.2617 67.3255 17.2617H64.42C62.5251 17.2617 60.8829 18.6513 60.6303 20.5462L59.9565 25.1781C59.8302 25.936 60.4197 26.6097 61.2198 26.6097H70.6099C71.2836 26.6518 71.8731 25.936 71.7889 25.1781Z" fill="#BBBBBB"/>
<path d="M65.8087 16.1251C67.7036 16.1251 69.2195 14.5671 69.2195 12.7143V12.4192C69.2195 10.5243 67.6615 9.00842 65.8087 9.00842C63.9138 9.00842 62.3979 10.5664 62.3979 12.4192V12.7143C62.3979 14.5671 63.956 16.1251 65.8087 16.1251Z" fill="#BBBBBB"/>
<path d="M101.875 36.4497C101.875 35.522 101.123 34.77 100.195 34.77C99.2677 34.77 98.5156 35.522 98.5156 36.4497V38.4654C98.5156 39.393 99.2677 40.1451 100.195 40.1451C101.123 40.1451 101.875 39.393 101.875 38.4654V36.4497Z" fill="#BBBBBB"/>
<path d="M103.219 36.7856V38.4653C103.219 39.2672 102.9 40.0362 102.333 40.6033C101.766 41.1703 100.997 41.4888 100.195 41.4888C99.3936 41.4888 98.6246 41.1703 98.0576 40.6033C97.4905 40.0362 97.172 39.2672 97.172 38.4653V36.7856H91.1251V38.4653C91.1251 39.2672 90.8065 40.0362 90.2395 40.6033C89.6725 41.1703 88.9035 41.4888 88.1016 41.4888C87.2997 41.4888 86.5307 41.1703 85.9637 40.6033C85.3967 40.0362 85.0782 39.2672 85.0782 38.4653V36.7856C84.1872 36.7856 83.3327 37.1396 82.7027 37.7696C82.0727 38.3996 81.7188 39.2541 81.7188 40.145V43.5045H106.578V40.145C106.578 39.2541 106.224 38.3996 105.594 37.7696C104.964 37.1396 104.11 36.7856 103.219 36.7856Z" fill="#BBBBBB"/>
<path d="M89.7803 36.4497C89.7803 35.522 89.0283 34.77 88.1006 34.77C87.1729 34.77 86.4209 35.522 86.4209 36.4497V38.4654C86.4209 39.393 87.1729 40.1451 88.1006 40.1451C89.0283 40.1451 89.7803 39.393 89.7803 38.4654V36.4497Z" fill="#BBBBBB"/>
<path d="M96.5001 57.6135C96.4996 56.2825 96.829 54.9722 97.4589 53.7997C98.0888 52.6272 98.9994 51.6291 100.109 50.8947H99.1876C98.8313 50.8947 98.4895 50.7531 98.2375 50.5011C97.9855 50.2491 97.8439 49.9073 97.8439 49.5509V48.2072C97.8439 47.8508 97.9855 47.509 98.2375 47.257C98.4895 47.005 98.8313 46.8634 99.1876 46.8634H100.531C100.888 46.8634 101.23 47.005 101.482 47.257C101.734 47.509 101.875 47.8508 101.875 48.2072V49.5509C101.875 49.7243 101.841 49.8959 101.775 50.0562C103.312 49.4781 104.991 49.3938 106.578 49.815V44.8478H81.7188V57.6135C81.7188 58.0547 81.8056 58.4915 81.9745 58.8991C82.1433 59.3067 82.3907 59.677 82.7027 59.989C83.0146 60.3009 83.385 60.5484 83.7926 60.7172C84.2001 60.886 84.637 60.9729 85.0782 60.9729H97.2392C96.7526 59.9198 96.5004 58.7736 96.5001 57.6135ZM89.7813 56.2698C89.7813 56.6261 89.6397 56.9679 89.3877 57.2199C89.1357 57.4719 88.7939 57.6135 88.4376 57.6135H87.0938C86.7374 57.6135 86.3956 57.4719 86.1436 57.2199C85.8916 56.9679 85.75 56.6261 85.75 56.2698V54.926C85.75 54.5696 85.8916 54.2278 86.1436 53.9758C86.3956 53.7238 86.7374 53.5822 87.0938 53.5822H88.4376C88.7939 53.5822 89.1357 53.7238 89.3877 53.9758C89.6397 54.2278 89.7813 54.5696 89.7813 54.926V56.2698ZM89.7813 49.5509C89.7813 49.9073 89.6397 50.2491 89.3877 50.5011C89.1357 50.7531 88.7939 50.8947 88.4376 50.8947H87.0938C86.7374 50.8947 86.3956 50.7531 86.1436 50.5011C85.8916 50.2491 85.75 49.9073 85.75 49.5509V48.2072C85.75 47.8508 85.8916 47.509 86.1436 47.257C86.3956 47.005 86.7374 46.8634 87.0938 46.8634H88.4376C88.7939 46.8634 89.1357 47.005 89.3877 47.257C89.6397 47.509 89.7813 47.8508 89.7813 48.2072V49.5509ZM95.8282 56.2698C95.8282 56.6261 95.6867 56.9679 95.4347 57.2199C95.1827 57.4719 94.8409 57.6135 94.4845 57.6135H93.1407C92.7843 57.6135 92.4425 57.4719 92.1905 57.2199C91.9385 56.9679 91.797 56.6261 91.797 56.2698V54.926C91.797 54.5696 91.9385 54.2278 92.1905 53.9758C92.4425 53.7238 92.7843 53.5822 93.1407 53.5822H94.4845C94.8409 53.5822 95.1827 53.7238 95.4347 53.9758C95.6867 54.2278 95.8282 54.5696 95.8282 54.926V56.2698ZM95.8282 49.5509C95.8282 49.9073 95.6867 50.2491 95.4347 50.5011C95.1827 50.7531 94.8409 50.8947 94.4845 50.8947H93.1407C92.7843 50.8947 92.4425 50.7531 92.1905 50.5011C91.9385 50.2491 91.797 49.9073 91.797 49.5509V48.2072C91.797 47.8508 91.9385 47.509 92.1905 47.257C92.4425 47.005 92.7843 46.8634 93.1407 46.8634H94.4845C94.8409 46.8634 95.1827 47.005 95.4347 47.257C95.6867 47.509 95.8282 47.8508 95.8282 48.2072V49.5509Z" fill="#BBBBBB"/>
<path d="M104.563 50.8948C103.234 50.8948 101.935 51.2888 100.83 52.0271C99.7249 52.7654 98.8637 53.8147 98.3552 55.0424C97.8467 56.2701 97.7136 57.621 97.9729 58.9244C98.2321 60.2277 98.872 61.4249 99.8116 62.3645C100.751 63.3041 101.948 63.944 103.252 64.2033C104.555 64.4625 105.906 64.3295 107.134 63.821C108.361 63.3124 109.411 62.4513 110.149 61.3464C110.887 60.2415 111.281 58.9424 111.281 57.6136C111.281 56.7313 111.108 55.8576 110.77 55.0424C110.432 54.2272 109.937 53.4866 109.313 52.8627C108.69 52.2388 107.949 51.7439 107.134 51.4062C106.319 51.0686 105.445 50.8948 104.563 50.8948ZM107.053 60.1042C106.927 60.2302 106.756 60.301 106.578 60.301C106.4 60.301 106.229 60.2302 106.103 60.1042L104.088 58.0886C103.962 57.9626 103.891 57.7918 103.891 57.6136V53.5823C103.891 53.4041 103.961 53.2332 104.087 53.1072C104.213 52.9812 104.384 52.9104 104.563 52.9104C104.741 52.9104 104.912 52.9812 105.038 53.1072C105.164 53.2332 105.234 53.4041 105.234 53.5823V57.3354L107.053 59.1542C107.179 59.2802 107.25 59.4511 107.25 59.6292C107.25 59.8074 107.179 59.9783 107.053 60.1042Z" fill="#C891C3"/>
<path d="M68.2968 44.6499C68.2268 44.8832 68.1335 45.1166 68.0285 45.3266C67.2818 46.7382 65.8001 47.6249 64.2835 48.1499C62.7668 48.6749 61.1685 48.8966 59.6401 49.3866C58.1118 49.8766 56.6068 50.6932 55.7785 52.0699C55.0785 53.2249 54.8801 54.7182 53.8651 55.6166C52.7568 56.5966 51.0651 56.5149 49.7935 57.2616C47.9735 58.3349 47.5185 60.8082 47.8568 62.8849C48.1951 64.9616 49.1401 66.9216 49.3968 69.0216C49.6768 71.2732 49.0935 73.6066 47.8568 75.4966C43.3885 73.3266 39.9235 69.4299 38.3135 64.6816C39.2818 64.1332 40.0985 63.3166 40.6118 62.3249C41.3818 60.8316 41.4635 58.9999 40.8101 57.4482C40.5651 56.8532 40.2035 56.2699 40.2151 55.6166C40.2385 54.5432 41.2418 53.7966 42.1518 53.2366C43.0618 52.6766 44.0885 51.9999 44.2401 50.9499C44.3918 49.8299 43.4818 48.8732 42.6651 48.0916C42.2801 47.7182 41.8718 47.2982 41.5918 46.8316C45.0101 42.6782 50.2018 40.0299 56.0001 40.0299C60.7135 40.0299 65.0185 41.7799 68.2968 44.6616V44.6499Z" fill="#E6DDF7"/>
<path d="M44.2284 50.9383C44.0884 51.9999 43.0618 52.6766 42.1401 53.2249C41.2301 53.7849 40.2268 54.5433 40.2034 55.6049C40.1918 56.2466 40.5418 56.8416 40.7984 57.4366C41.4518 58.9883 41.3701 60.8199 40.6001 62.3133C40.0868 63.2933 39.2701 64.1216 38.3018 64.6699C37.6718 62.7916 37.3218 60.7849 37.3218 58.6849C37.3218 54.1816 38.9201 50.0516 41.5801 46.8199C41.8601 47.2866 42.2684 47.7066 42.6534 48.0799C43.4701 48.8616 44.3801 49.8183 44.2284 50.9383Z" fill="#643E96" fill-opacity="0.8"/>
<path d="M63.6299 54.2632C62.7549 55.1032 62.5449 56.6666 63.4083 57.5299C64.0383 58.1482 64.9833 58.2649 65.8583 58.4049C66.7333 58.5449 67.6899 58.8366 68.0983 59.6182C68.7049 60.7732 67.7249 62.1849 67.9816 63.4682C68.1916 64.4949 69.1483 65.2066 70.1399 65.5682C71.0733 65.9066 72.0649 66.0466 72.9866 66.4082C71.7149 69.1966 69.7783 71.6116 67.3866 73.4666C66.0683 73.0582 64.7849 72.5332 63.4316 72.3232C59.9433 71.7866 56.2099 73.6532 54.5416 76.7682C54.4483 76.9316 54.3666 77.1066 54.2849 77.2816C51.9983 77.0716 49.8166 76.4532 47.8449 75.4966C49.0933 73.6066 49.6649 71.2732 49.3849 69.0216C49.1283 66.9332 48.1833 64.9732 47.8449 62.8849C47.5066 60.8082 47.9616 58.3349 49.7816 57.2616C51.0533 56.5149 52.7449 56.5966 53.8533 55.6166C54.8683 54.7182 55.0549 53.2249 55.7666 52.0699C56.5949 50.7049 58.1116 49.8766 59.6283 49.3866C61.1566 48.8966 62.7549 48.6749 64.2716 48.1499C65.7883 47.6249 67.2699 46.7382 68.0166 45.3266C68.1333 45.1166 68.2149 44.8832 68.2849 44.6499C71.5866 47.5432 73.8616 51.5799 74.4799 56.1416C74.2583 56.1416 74.0249 56.1299 73.8033 56.0949C72.6016 55.9316 71.4816 55.3716 70.4083 54.8116C69.3349 54.2516 68.2383 53.6682 67.0366 53.4466C65.8349 53.2249 64.4933 53.4232 63.6183 54.2632H63.6299Z" fill="#643E96" fill-opacity="0.8"/>
<path d="M74.6667 58.6849C74.6667 61.4383 74.0717 64.0633 72.9984 66.4083C72.0767 66.0466 71.0734 65.9183 70.1517 65.5683C69.1717 65.2066 68.2034 64.4949 67.9934 63.4683C67.7367 62.1849 68.7167 60.7733 68.11 59.6183C67.7017 58.8366 66.7334 58.5449 65.87 58.4049C64.995 58.2649 64.05 58.1483 63.42 57.5299C62.5567 56.6666 62.755 55.1033 63.6417 54.2633C64.5167 53.4233 65.8584 53.2249 67.06 53.4466C68.2617 53.6683 69.3467 54.2516 70.4317 54.8116C71.505 55.3716 72.625 55.9316 73.8267 56.0949C74.0484 56.1299 74.27 56.1416 74.5034 56.1416C74.62 56.9699 74.6784 57.8216 74.6784 58.6849H74.6667Z" fill="#E6DDF7"/>
<path d="M67.3985 73.4666C64.2485 75.905 60.2935 77.3516 56.0002 77.3516C55.4285 77.3516 54.8569 77.3283 54.2969 77.27C54.3785 77.095 54.4602 76.9316 54.5535 76.7566C56.2219 73.6416 59.9552 71.775 63.4435 72.3116C64.8085 72.5216 66.0919 73.0466 67.3985 73.455V73.4666Z" fill="#E6DDF7"/>
<defs>
<clipPath id="clip0_5003_7469">
<rect width="32.2503" height="32.2503" fill="white" transform="translate(0 47.4342)"/>
</clipPath>
</defs>
</svg>

<svg xmlns="http://www.w3.org/2000/svg" width="113" height="81" fill="none"><path stroke="#C891C3" stroke-dasharray="1.61 1.61" stroke-width="2" d="M57.462 17.883v24.252"/><path stroke="#C891C3" stroke-dasharray="1.61 1.61" stroke-width=".806" d="M56.88 54.669v17.78"/><path stroke="#C891C3" stroke-dasharray="1.61 1.61" stroke-width="2" d="M24.643 71.45h32.383M70.588 51.549h16.636"/><g clip-path="url(#a)"><path fill="#BBB" d="M8.087 64.54H6.64a.95.95 0 0 0-.872.574l-4.003 9.323 9.508-4.856c-1.138-1.576-2.264-3.313-3.186-5.04M26.482 65.114a.95.95 0 0 0-.872-.574h-1.447c-1.74 3.263-4.277 6.635-5.89 8.49a2.85 2.85 0 0 1-4.296 0c-.115-.133-.72-.834-1.554-1.911l-1.714.876 6.484 6.472 12.287-6.37zM.595 77.161l-.517 1.205a.947.947 0 0 0 .871 1.32h13.924c.087-.066.088-.062.556-.304l-6.494-6.48zM32.173 78.366l-1.943-4.524-11.271 5.843h12.342c.68 0 1.14-.695.872-1.32M17.073 55.958a.949.949 0 0 0-1.897 0 .949.949 0 0 0 1.897 0"/><path fill="#C891C3" d="M16.84 71.724c.32-.367 7.821-9.044 7.821-15.008 0-12.3-17.073-12.45-17.073 0 0 5.964 7.502 14.642 7.821 15.008a.95.95 0 0 0 1.432 0m-3.56-15.766a2.846 2.846 0 0 1 5.69 0 2.846 2.846 0 0 1-5.69 0"/></g><path fill="#C891C3" d="M60.84 17.009c.21-.21.463-.379.716-.505-.505-1.558-1.98-2.611-3.621-2.611h-2.906a3.82 3.82 0 0 0-3.621 2.61c.252.17.463.337.716.506.968.842 1.642 2.021 1.81 3.284l.421 2.948h4.295l.421-2.948a5.3 5.3 0 0 1 1.769-3.284M56.462 12.756c1.895 0 3.41-1.558 3.41-3.41V9.05c0-1.894-1.557-3.41-3.41-3.41-1.895 0-3.41 1.558-3.41 3.41v.296c0 1.852 1.515 3.41 3.41 3.41"/><path fill="#BBB" d="M52.335 20.546c-.294-1.895-1.895-3.284-3.79-3.284H45.64c-1.895 0-3.537 1.39-3.79 3.284l-.673 4.632c-.127.758.463 1.432 1.263 1.432h9.348c.758 0 1.348-.674 1.263-1.432zM47.071 16.125c1.895 0 3.411-1.558 3.411-3.41v-.296c0-1.895-1.558-3.41-3.41-3.41-1.896 0-3.411 1.557-3.411 3.41v.295c0 1.853 1.558 3.411 3.41 3.411M71.789 25.178l-.674-4.632c-.295-1.895-1.895-3.284-3.79-3.284H64.42c-1.895 0-3.537 1.39-3.79 3.284l-.674 4.632c-.126.758.464 1.432 1.264 1.432h9.39c.674.042 1.263-.674 1.179-1.432M65.809 16.125c1.895 0 3.41-1.558 3.41-3.41v-.296c0-1.895-1.557-3.41-3.41-3.41-1.895 0-3.411 1.557-3.411 3.41v.295c0 1.853 1.558 3.411 3.41 3.411M101.875 36.45a1.68 1.68 0 0 0-3.36 0v2.015a1.68 1.68 0 0 0 3.36 0z"/><path fill="#BBB" d="M103.219 36.786v1.68a3.024 3.024 0 0 1-6.047 0v-1.68h-6.047v1.68a3.024 3.024 0 0 1-6.047 0v-1.68a3.36 3.36 0 0 0-3.36 3.359v3.36h24.86v-3.36a3.36 3.36 0 0 0-3.359-3.36"/><path fill="#BBB" d="M89.78 36.45a1.68 1.68 0 1 0-3.36 0v2.015a1.68 1.68 0 0 0 3.36 0zM96.5 57.614a8.05 8.05 0 0 1 3.609-6.72h-.921a1.344 1.344 0 0 1-1.344-1.343v-1.344a1.344 1.344 0 0 1 1.344-1.344h1.343a1.345 1.345 0 0 1 1.344 1.344v1.344c0 .173-.034.345-.1.505a7.9 7.9 0 0 1 4.803-.241v-4.967h-24.86v12.766a3.36 3.36 0 0 0 3.36 3.359H97.24a8 8 0 0 1-.739-3.36m-6.719-1.344a1.344 1.344 0 0 1-1.343 1.343h-1.344a1.344 1.344 0 0 1-1.344-1.343v-1.344a1.344 1.344 0 0 1 1.344-1.344h1.344a1.344 1.344 0 0 1 1.343 1.344zm0-6.72a1.344 1.344 0 0 1-1.343 1.345h-1.344a1.344 1.344 0 0 1-1.344-1.344v-1.344a1.344 1.344 0 0 1 1.344-1.344h1.344a1.344 1.344 0 0 1 1.343 1.344zm6.047 6.72a1.344 1.344 0 0 1-1.344 1.343h-1.343a1.344 1.344 0 0 1-1.344-1.343v-1.344a1.344 1.344 0 0 1 1.344-1.344h1.343a1.344 1.344 0 0 1 1.344 1.344zm0-6.72a1.344 1.344 0 0 1-1.344 1.345h-1.343a1.344 1.344 0 0 1-1.344-1.344v-1.344a1.344 1.344 0 0 1 1.344-1.344h1.343a1.344 1.344 0 0 1 1.344 1.344z"/><path fill="#C891C3" d="M104.563 50.895a6.72 6.72 0 1 0 0 13.438 6.72 6.72 0 0 0 0-13.438m2.49 9.21a.67.67 0 0 1-.95 0l-2.015-2.016a.67.67 0 0 1-.197-.475v-4.032a.671.671 0 1 1 1.343 0v3.753l1.819 1.82a.67.67 0 0 1 0 .95"/><path fill="#E6DDF7" d="M68.297 44.65c-.07.233-.163.467-.269.677-.746 1.411-2.228 2.298-3.745 2.823s-3.114.747-4.643 1.237-3.033 1.306-3.861 2.683c-.7 1.155-.899 2.648-1.914 3.547-1.108.98-2.8.898-4.072 1.645-1.82 1.073-2.274 3.546-1.936 5.623s1.283 4.037 1.54 6.137c.28 2.251-.303 4.585-1.54 6.475a18.74 18.74 0 0 1-9.544-10.815 5.8 5.8 0 0 0 2.299-2.357c.77-1.493.852-3.325.198-4.877-.245-.595-.607-1.178-.595-1.831.023-1.074 1.027-1.82 1.937-2.38S44.089 52 44.24 50.95c.152-1.12-.758-2.077-1.575-2.858-.385-.374-.793-.794-1.073-1.26A18.62 18.62 0 0 1 56 40.03c4.714 0 9.019 1.75 12.297 4.632z"/><path fill="#643E96" fill-opacity=".8" d="M44.228 50.938c-.14 1.062-1.166 1.739-2.088 2.287-.91.56-1.913 1.318-1.937 2.38-.011.642.339 1.237.595 1.832.654 1.551.572 3.383-.198 4.876a5.9 5.9 0 0 1-2.298 2.357 18.8 18.8 0 0 1-.98-5.985c0-4.503 1.598-8.633 4.258-11.865.28.467.688.887 1.073 1.26.817.782 1.727 1.738 1.575 2.858M63.63 54.263c-.875.84-1.085 2.404-.222 3.267.63.618 1.575.735 2.45.875s1.832.432 2.24 1.213c.607 1.155-.373 2.567-.116 3.85.21 1.027 1.166 1.739 2.158 2.1.933.339 1.925.479 2.847.84a18.84 18.84 0 0 1-5.6 7.059c-1.319-.409-2.602-.934-3.955-1.144-3.489-.536-7.222 1.33-8.89 4.445a7 7 0 0 0-.257.514 18.7 18.7 0 0 1-6.44-1.785c1.248-1.89 1.82-4.224 1.54-6.475-.257-2.089-1.202-4.049-1.54-6.137-.338-2.077.117-4.55 1.937-5.623 1.271-.747 2.963-.665 4.071-1.645 1.015-.899 1.202-2.392 1.914-3.547.828-1.365 2.345-2.193 3.861-2.683 1.529-.49 3.127-.712 4.644-1.237 1.516-.525 2.998-1.412 3.745-2.823.116-.21.198-.444.268-.677a18.6 18.6 0 0 1 6.195 11.492c-.222 0-.455-.012-.677-.047-1.201-.163-2.321-.723-3.395-1.283s-2.17-1.144-3.371-1.365-2.544-.024-3.419.816z"/><path fill="#E6DDF7" d="M74.667 58.685c0 2.753-.595 5.378-1.669 7.723-.921-.361-1.925-.49-2.846-.84-.98-.361-1.949-1.073-2.159-2.1-.256-1.283.724-2.695.117-3.85-.408-.781-1.377-1.073-2.24-1.213-.875-.14-1.82-.257-2.45-.875-.863-.863-.665-2.427.222-3.267.875-.84 2.216-1.038 3.418-.816 1.202.221 2.287.805 3.372 1.365 1.073.56 2.193 1.12 3.395 1.283a4.3 4.3 0 0 0 .676.047c.117.828.175 1.68.175 2.543zM67.399 73.467A18.55 18.55 0 0 1 56 77.352c-.572 0-1.143-.024-1.703-.082.082-.175.163-.338.257-.513 1.668-3.115 5.401-4.982 8.89-4.445 1.364.21 2.648.735 3.954 1.143z"/><defs><clipPath id="a"><path fill="#fff" d="M0 47.434h32.25v32.25H0z"/></clipPath></defs></svg>
